assets/cards-tab/Asset/notificationicon.svg

<svg width="24" height="24" viewBox="0 0 24 24" fill="none" xmlns="http://www.w3.org/2000/svg">
<path fill-rule="evenodd" clip-rule="evenodd" d="M8.32912 5.58845C10.4001 2.70752 14.3171 1.86458 17.3898 3.63861C20.4626 5.41264 21.6911 9.22637 20.2316 12.4604L19.1534 14.8495C18.8351 15.5548 18.7822 16.3724 18.7295 17.1888C18.6702 18.1051 18.6111 19.0197 18.1768 19.7718C17.5339 20.8854 16.1099 21.267 14.9963 20.624L3.87361 14.2023C2.76001 13.5594 2.37846 12.1354 3.0214 11.0218C3.45617 10.2688 4.22009 9.75997 4.98539 9.25024C5.66734 8.79603 6.35038 8.34108 6.80264 7.71194L8.32912 5.58845ZM5.54546 17.2212C5.6129 16.709 6.21214 16.5469 6.63064 16.8499C8.18839 17.9776 9.57014 18.7803 11.3261 19.5655C11.7955 19.7754 11.9542 20.3727 11.5462 20.6858C11.1555 20.9856 10.7096 21.2055 10.234 21.3329C9.75827 21.4604 9.26215 21.4929 8.77391 21.4286C8.28566 21.3643 7.81486 21.2045 7.38838 20.9583C6.9619 20.7121 6.58809 20.3842 6.2883 19.9935C5.98852 19.6029 5.76862 19.1569 5.64116 18.6813C5.5137 18.2056 5.48118 17.7095 5.54546 17.2212Z" fill="white"/>
</svg>

<svg xmlns="http://www.w3.org/2000/svg" width="24" height="24" fill="none" viewBox="0 0 24 24"><path fill="#fff" fill-rule="evenodd" d="M8.33 5.588a6.906 6.906 0 0 1 11.902 6.872l-1.079 2.39c-.318.705-.37 1.522-.423 2.339-.06.916-.119 1.83-.553 2.583a2.33 2.33 0 0 1-3.18.852L3.873 14.202a2.33 2.33 0 0 1-.853-3.18c.435-.753 1.2-1.262 1.964-1.772.682-.454 1.365-.909 1.818-1.538zM5.544 17.221c.068-.512.667-.674 1.086-.371a25 25 0 0 0 4.695 2.715c.47.21.628.808.22 1.12a3.75 3.75 0 0 1-6-3.464" clip-rule="evenodd"/></svg>
